markup/public/images/logo.svg

<svg width="190" height="43" viewBox="0 0 190 43" fill="none" xmlns="http://www.w3.org/2000/svg">
<g clip-path="url(#clip0)">
<path d="M18.5847 5.0414L14.0164 0.431641C5.81421 3.60725 0 11.4951 0 20.7146C0 30.856 7.06011 39.4609 16.612 41.817C25.4372 31.1633 25.9563 16.1048 18.5847 5.0414Z" fill="#F9A536"/>
<path d="M19.7268 42.2267C20.0383 42.2267 20.2459 42.3291 20.5574 42.3291C24.8142 40.3828 28.4481 37.3096 31.0437 33.212C33.5355 29.2169 34.6776 24.812 34.5738 20.3047L29.9017 15.5925C31.7705 25.5291 28.1366 35.9779 19.7268 42.2267Z" fill="#181818"/>
<path d="M18.0656 42.0219H18.1694C27.0984 35.6707 30.9399 24.6073 28.4481 14.3634L21.8033 7.70483C27.0984 18.6658 26.0601 32.0853 18.0656 42.0219Z" fill="#181818"/>
<path d="M40.6995 25.7339C39.5574 30.8558 36.8579 35.3632 32.8087 38.8461C31.6667 39.8705 30.4208 40.7924 29.071 41.5095C35.612 39.5632 40.9071 34.7485 43.3989 28.3973L40.6995 25.7339Z" fill="#181818"/>
<path d="M39.6612 25.0171L35.8197 21.2268C35.7159 25.6317 34.47 29.9341 32.082 33.7244C29.7978 37.4122 26.4754 40.4853 22.7377 42.4317C23.6722 42.4317 24.5028 42.3292 25.3334 42.2268C32.6011 39.3585 38.1039 32.9049 39.6612 25.0171Z" fill="#181818"/>
<path d="M62.1913 29.4219C60.011 28.8072 58.4536 28.0902 57.4153 27.1682C56.3771 26.2463 55.9618 25.1194 55.9618 23.7877C55.9618 22.2511 56.5847 21.0219 57.7268 20.0999C58.9727 19.0755 60.5301 18.6658 62.5028 18.6658C63.8525 18.6658 64.9946 18.8707 66.0328 19.3828C67.0711 19.895 67.9017 20.6121 68.4208 21.4316C69.0437 22.3536 69.2514 23.2755 69.2514 24.2999H66.6558C66.6558 23.1731 66.2405 22.2511 65.5137 21.6365C64.7869 21.0219 63.7487 20.6121 62.3989 20.6121C61.153 20.6121 60.2186 20.9194 59.4918 21.4316C58.765 21.9438 58.4536 22.7633 58.4536 23.6853C58.4536 24.5048 58.765 25.1194 59.4918 25.6316C60.1148 26.1438 61.2569 26.656 62.9181 27.0658C64.4754 27.4755 65.8252 27.9877 66.6558 28.4999C67.5902 29.0121 68.2131 29.6267 68.6284 30.3438C69.0437 31.0609 69.2514 31.8804 69.2514 32.9048C69.2514 34.4414 68.6284 35.6706 67.3825 36.5926C66.1366 37.5146 64.5793 38.0267 62.5028 38.0267C61.153 38.0267 59.9071 37.8219 58.765 37.3097C57.623 36.7975 56.6885 36.0804 56.0656 35.2609C55.4426 34.4414 55.1312 33.417 55.1312 32.2902H57.7268C57.7268 33.417 58.1421 34.3389 58.9727 35.056C59.8033 35.6706 60.9454 36.0804 62.3989 36.0804C63.7487 36.0804 64.7869 35.7731 65.5137 35.2609C66.2405 34.7487 66.5519 34.0316 66.5519 33.0072C66.5519 32.0853 66.2405 31.3682 65.5137 30.856C65.0984 30.3438 63.8525 29.9341 62.1913 29.4219Z" fill="#181818"/>
<path d="M75.4809 20.3048V23.6853H78.1804V25.5292H75.4809V34.2365C75.4809 34.8512 75.5847 35.2609 75.7924 35.4658C76 35.7731 76.4153 35.8756 77.0383 35.8756C77.3498 35.8756 77.6612 35.7731 78.1804 35.6707V37.617C77.5574 37.8219 76.9345 37.9243 76.3115 37.9243C75.1694 37.9243 74.4427 37.617 73.8197 36.9C73.3006 36.2853 72.9891 35.3634 72.9891 34.1341V25.4268H70.3935V23.5829H72.9891V20.2024H75.4809V20.3048Z" fill="#181818"/>
<path d="M80.153 30.651C80.153 29.2168 80.4645 27.9875 80.9836 26.9632C81.5027 25.8363 82.3333 25.0168 83.2678 24.4022C84.306 23.7875 85.3443 23.4802 86.5902 23.4802C88.5629 23.4802 90.1202 24.0949 91.2623 25.4266C92.5082 26.7583 93.0273 28.4997 93.0273 30.7534V30.9583C93.0273 32.29 92.7159 33.5192 92.1967 34.6461C91.6776 35.7729 90.9508 36.5924 89.9126 37.2071C88.8743 37.8217 87.8361 38.129 86.4864 38.129C84.5137 38.129 82.9563 37.5144 81.8142 36.1827C80.5683 34.851 80.0492 33.1095 80.0492 30.8558V30.651H80.153ZM82.541 30.9583C82.541 32.4949 82.9563 33.8266 83.6831 34.7485C84.4099 35.6705 85.4481 36.1827 86.694 36.1827C87.9399 36.1827 88.8743 35.6705 89.7049 34.7485C90.4317 33.8266 90.847 32.3924 90.847 30.7534C90.847 29.2168 90.4317 27.9875 89.7049 26.9632C88.9782 26.0412 87.9399 25.529 86.694 25.529C85.4481 25.529 84.5137 26.0412 83.7869 26.9632C82.9563 27.8851 82.541 29.2168 82.541 30.9583Z" fill="#181818"/>
<path d="M101.956 36.1827C102.787 36.1827 103.618 35.8753 104.24 35.3631C104.863 34.851 105.279 34.2363 105.279 33.4168H107.563C107.563 34.2363 107.251 34.9534 106.732 35.7729C106.213 36.49 105.486 37.1046 104.656 37.5144C103.825 37.9241 102.891 38.129 101.956 38.129C99.9836 38.129 98.4263 37.5144 97.2842 36.1827C96.1421 34.851 95.5192 33.1095 95.5192 30.9583V30.5485C95.5192 29.2168 95.7268 27.9875 96.2459 26.8607C96.7651 25.8363 97.4918 24.9144 98.4263 24.4022C99.3607 23.7875 100.503 23.4802 101.852 23.4802C103.41 23.4802 104.76 23.9924 105.798 24.9144C106.836 25.8363 107.459 27.0656 107.459 28.6022H105.175C105.071 27.6802 104.76 26.9632 104.137 26.3485C103.514 25.7339 102.683 25.4266 101.852 25.4266C100.607 25.4266 99.6722 25.8363 98.9454 26.7583C98.2186 27.6802 97.9071 28.9095 97.9071 30.5485V30.9583C97.9071 32.5973 98.2186 33.8266 98.9454 34.7485C99.776 35.6705 100.71 36.1827 101.956 36.1827Z" fill="#181818"/>
<path d="M114.415 31.3681L112.858 32.9047V37.8218H110.366V17.8462H112.858V29.934L114.208 28.3974L118.672 23.7877H121.683L116.077 29.7291L122.306 37.9242H119.399L114.415 31.3681Z" fill="#181818"/>
<path d="M135.596 30.1389H128.016V37.9243H124.071V18.8706H136.634V22.0462H128.016V26.9633H135.596V30.1389Z" fill="#181818"/>
<path d="M137.672 30.6511C137.672 29.217 137.984 27.9877 138.503 26.8609C139.022 25.734 139.853 24.9145 140.891 24.2999C141.929 23.6852 143.071 23.3779 144.525 23.3779C146.497 23.3779 148.055 23.9926 149.197 25.1194C150.443 26.2462 151.066 27.8852 151.273 29.8316V30.7535C151.273 32.9048 150.65 34.6462 149.404 35.9779C148.159 37.3096 146.497 37.9243 144.421 37.9243C142.344 37.9243 140.683 37.3096 139.437 35.9779C138.191 34.6462 137.568 32.9048 137.568 30.6511H137.672ZM141.514 30.9584C141.514 32.2901 141.721 33.3145 142.24 34.0316C142.76 34.7487 143.486 35.056 144.421 35.056C145.355 35.056 146.082 34.7487 146.601 34.0316C147.12 33.3145 147.432 32.1877 147.432 30.6511C147.432 29.3194 147.12 28.295 146.601 27.5779C146.082 26.8609 145.355 26.4511 144.421 26.4511C143.486 26.4511 142.76 26.8609 142.24 27.5779C141.825 28.295 141.514 29.4218 141.514 30.9584Z" fill="#181818"/>
<path d="M161.656 27.2705C161.137 27.168 160.721 27.168 160.306 27.168C158.853 27.168 157.918 27.6802 157.503 28.6022V37.8217H153.661V23.7875H157.295L157.399 25.4266C158.126 24.0949 159.268 23.4802 160.618 23.4802C161.033 23.4802 161.448 23.5827 161.76 23.6851L161.656 27.2705Z" fill="#181818"/>
<path d="M169.858 38.1291C167.781 38.1291 166.016 37.5145 164.771 36.1828C163.421 34.9535 162.798 33.2121 162.798 31.0609V30.6511C162.798 29.217 163.109 27.9877 163.628 26.8609C164.148 25.734 164.978 24.9145 166.016 24.2999C167.055 23.6852 168.197 23.3779 169.546 23.3779C171.519 23.3779 173.077 23.9926 174.115 25.2218C175.257 26.4511 175.776 28.1926 175.776 30.4462V31.9828H166.639C166.743 32.9048 167.159 33.6218 167.781 34.2365C168.404 34.7487 169.235 35.056 170.169 35.056C171.623 35.056 172.765 34.5438 173.596 33.5194L175.465 35.5682C174.842 36.3877 174.115 37.0023 173.18 37.4121C172.142 37.9243 171 38.1291 169.858 38.1291ZM169.443 26.5535C168.716 26.5535 168.093 26.7584 167.574 27.2706C167.159 27.7828 166.847 28.4999 166.639 29.4218H171.934V29.1145C171.934 28.295 171.727 27.6804 171.208 27.1682C170.792 26.7584 170.169 26.5535 169.443 26.5535Z" fill="#181818"/>
<path d="M183.355 27.9876L185.743 23.7876H189.792L185.743 30.7535L190 37.9242H185.847L183.251 33.5193L180.76 37.9242H176.607L180.863 30.7535L176.814 23.7876H180.863L183.355 27.9876Z" fill="#181818"/>
</g>
<defs>
<clipPath id="clip0">
<rect width="190" height="42" fill="white" transform="translate(0 0.431641)"/>
</clipPath>
</defs>
</svg>

<svg width="190" height="43" viewBox="0 0 190 43" fill="none" xmlns="http://www.w3.org/2000/svg"><g clip-path="url(#a)"><path d="M18.585 5.041L14.016.431C5.814 3.608 0 11.496 0 20.716c0 10.14 7.06 18.744 16.612 21.101 8.825-10.654 9.344-25.712 1.973-36.776z" fill="#F9A536"/><path d="M19.727 42.227c.311 0 .519.102.83.102 4.257-1.946 7.891-5.02 10.487-9.117 2.491-3.995 3.634-8.4 3.53-12.907l-4.672-4.713c1.868 9.937-1.765 20.386-10.175 26.635z" fill="#181818"/><path d="M18.066 42.022h.103c8.93-6.351 12.77-17.415 10.28-27.659l-6.646-6.658c5.295 10.96 4.257 24.38-3.737 34.317zM40.7 25.734c-1.143 5.122-3.842 9.63-7.891 13.112-1.142 1.025-2.388 1.946-3.738 2.664 6.541-1.947 11.836-6.761 14.328-13.113l-2.7-2.663z" fill="#181818"/><path d="M39.661 25.017l-3.841-3.79c-.104 4.405-1.35 8.707-3.738 12.497-2.284 3.688-5.607 6.761-9.344 8.708.934 0 1.765-.103 2.595-.205 7.268-2.868 12.77-9.322 14.328-17.21zm22.53 4.405c-2.18-.615-3.737-1.332-4.776-2.254-1.038-.922-1.453-2.049-1.453-3.38 0-1.537.623-2.766 1.765-3.688 1.246-1.024 2.803-1.434 4.776-1.434 1.35 0 2.492.205 3.53.717 1.038.512 1.869 1.23 2.388 2.049.623.922.83 1.844.83 2.868h-2.595c0-1.127-.416-2.049-1.142-2.663-.727-.615-1.765-1.025-3.115-1.025-1.246 0-2.18.307-2.907.82-.727.512-1.038 1.331-1.038 2.253 0 .82.311 1.434 1.038 1.947.623.512 1.765 1.024 3.426 1.434 1.557.41 2.907.922 3.738 1.434.934.512 1.557 1.127 1.972 1.844.416.717.623 1.536.623 2.56 0 1.537-.623 2.767-1.869 3.689-1.245.922-2.803 1.434-4.88 1.434-1.349 0-2.595-.205-3.737-.717-1.142-.513-2.077-1.23-2.7-2.05-.622-.819-.934-1.843-.934-2.97h2.596c0 1.127.415 2.049 1.246 2.766.83.615 1.972 1.024 3.426 1.024 1.35 0 2.388-.307 3.115-.82.727-.511 1.038-1.228 1.038-2.253 0-.922-.312-1.639-1.038-2.151-.416-.512-1.661-.922-3.323-1.434zm13.289-9.117v3.38h2.7v1.844h-2.7v8.707c0 .615.105 1.025.312 1.23.208.307.623.41 1.246.41.312 0 .623-.103 1.142-.205v1.946a5.951 5.951 0 0 1-1.869.307c-1.142 0-1.868-.307-2.491-1.024-.52-.615-.83-1.537-.83-2.766v-8.707h-2.596v-1.844h2.595v-3.38h2.492v.102zm4.673 10.346c0-1.434.311-2.663.83-3.688.52-1.127 1.35-1.946 2.285-2.56 1.038-.615 2.076-.923 3.322-.923 1.973 0 3.53.615 4.672 1.947 1.246 1.331 1.765 3.073 1.765 5.326v.205a8.74 8.74 0 0 1-.83 3.688c-.52 1.127-1.246 1.946-2.284 2.561-1.039.615-2.077.922-3.427.922-1.972 0-3.53-.615-4.672-1.946-1.246-1.332-1.765-3.074-1.765-5.327v-.205h.104zm2.388.307c0 1.537.415 2.869 1.142 3.79.727.922 1.765 1.435 3.011 1.435 1.246 0 2.18-.513 3.01-1.434.728-.922 1.143-2.357 1.143-3.996 0-1.536-.415-2.765-1.142-3.79-.727-.922-1.765-1.434-3.011-1.434-1.246 0-2.18.512-2.907 1.434-.83.922-1.246 2.254-1.246 3.995zm19.415 5.225c.831 0 1.662-.308 2.284-.82.623-.512 1.039-1.127 1.039-1.946h2.284c0 .82-.312 1.536-.831 2.356a5.703 5.703 0 0 1-2.076 1.741 6.128 6.128 0 0 1-2.7.615c-1.972 0-3.53-.615-4.672-1.946-1.142-1.332-1.765-3.074-1.765-5.225v-.41c0-1.331.208-2.56.727-3.687.52-1.025 1.246-1.947 2.18-2.459.935-.614 2.077-.922 3.426-.922 1.558 0 2.908.512 3.946 1.434 1.038.922 1.661 2.152 1.661 3.688h-2.284c-.104-.922-.415-1.639-1.038-2.253a3.245 3.245 0 0 0-2.285-.922c-1.245 0-2.18.41-2.907 1.331-.726.922-1.038 2.152-1.038 3.79v.41c0 1.64.312 2.869 1.038 3.79.831.922 1.765 1.435 3.011 1.435zm12.459-4.815l-1.557 1.537v4.917h-2.492V17.846h2.492v12.088l1.35-1.537 4.464-4.61h3.011l-5.606 5.942 6.229 8.195h-2.907l-4.984-6.556zm21.181-1.229h-7.58v7.785h-3.945V18.871h12.563v3.175h-8.618v4.917h7.58v3.176zm2.076.512c0-1.434.312-2.663.831-3.79.519-1.127 1.35-1.947 2.388-2.561 1.038-.615 2.18-.922 3.634-.922 1.972 0 3.53.615 4.672 1.741 1.246 1.127 1.869 2.766 2.076 4.713v.921c0 2.152-.623 3.893-1.869 5.225-1.245 1.332-2.907 1.946-4.983 1.946-2.077 0-3.738-.614-4.984-1.946-1.246-1.332-1.869-3.073-1.869-5.327h.104zm3.842.307c0 1.332.207 2.357.726 3.074.52.717 1.246 1.024 2.181 1.024.934 0 1.661-.307 2.18-1.024.519-.717.831-1.844.831-3.38 0-1.333-.312-2.357-.831-3.074-.519-.717-1.246-1.127-2.18-1.127-.935 0-1.661.41-2.181 1.127-.415.717-.726 1.844-.726 3.38zm20.142-3.688c-.519-.102-.935-.102-1.35-.102-1.453 0-2.388.512-2.803 1.434v9.22h-3.842V23.787h3.634l.104 1.64c.727-1.332 1.869-1.947 3.219-1.947.415 0 .83.103 1.142.205l-.104 3.585zm8.202 10.86c-2.077 0-3.842-.616-5.087-1.947-1.35-1.23-1.973-2.97-1.973-5.122v-.41c0-1.434.311-2.663.83-3.79.52-1.127 1.35-1.947 2.388-2.561 1.039-.615 2.181-.922 3.53-.922 1.973 0 3.531.615 4.569 1.844 1.142 1.23 1.661 2.97 1.661 5.224v1.537h-9.137c.104.922.52 1.639 1.142 2.253.623.513 1.454.82 2.388.82 1.454 0 2.596-.512 3.427-1.537l1.869 2.05c-.623.819-1.35 1.433-2.285 1.843-1.038.512-2.18.717-3.322.717zm-.415-11.577c-.727 0-1.35.205-1.869.718-.415.512-.727 1.229-.935 2.15h5.295v-.306c0-.82-.207-1.435-.726-1.947-.416-.41-1.039-.614-1.765-.614zm13.912 1.435l2.388-4.2h4.049l-4.049 6.965L190 37.925h-4.153l-2.596-4.405-2.491 4.405h-4.153l4.256-7.17-4.049-6.966h4.049l2.492 4.2z" fill="#181818"/></g><defs><clipPath id="a"><path fill="#fff" transform="translate(0 .432)" d="M0 0h190v42H0z"/></clipPath></defs></svg>
